X:1
T:Charlie Lennon's Mazurka  "CCPB Sep-1995"
M:3/4
L:1/8
Q:80
C:Trad.
S:Mazurka
K:HP
|: {g}AB{g}Bc{g}cB | \
{g}A{d}c{gef}e2{A}ec | \
{g}Bc{g}d2{G}df |
{g}ed{g}ce{ag}a2 | | \
{g}AB{g}Bc{g}cB | \
{g}A{d}c{gef}e2{A}ec |
{g}Bc{g}d2{G}de | \
{g}cB{G}A2-A2 :: \
ag{afg}f2{g}df |
{g}df{gef}e2{A}ec | \
{g}Bc{g}d2{G}de | \
{g}cB{g}c2{G}ca| |
{g}ag{afg}f2{g}df | \
{g}df{gef}e2{A}ec | \
{g}Bc{g}d2{G}de |
{g}cB{G}A2-A2 :|
